svgs/thin/bell-school-slash.svg

<svg xmlns="http://www.w3.org/2000/svg" viewBox="0 0 640 512"><!--! Font Awesome Pro 6.0.0-alpha3 by @fontawesome - https://fontawesome.com License - https://fontawesome.com/license (Commercial License) --><path d="M636.1 497.7L12.99 1.73C11.53 .5664 9.772 0 8.026 0C5.674 0 3.337 1.029 1.739 3.012c-2.75 3.469-2.172 8.5 1.281 11.25l623.1 496C628.5 511.4 630.2 512 631.1 512c2.344 0 4.688-1.031 6.266-3.016C641 505.5 640.4 500.5 636.1 497.7zM272 16c105.9 0 192 86.13 192 192c0 21.78-3.82 42.65-10.54 62.18l13.16 10.46C475.1 258 480 233.6 480 207.1c0-114.9-93.12-207.1-207.1-207.1c-42.47 0-81.93 12.79-114.9 34.65l13.4 10.65C200 26.85 234.7 16 272 16zM496 496h-88.84c5.213-6.756 8.844-14.82 8.844-24v-47.63l-16-12.72V472c0 13.23-10.77 24-24 24h-208c-13.23 0-24-10.77-24-24v-100.3c35.31 27.65 79.67 44.28 127.1 44.28c36.54 0 70.77-9.557 100.6-26.14l-13.68-10.87C332.8 392.3 303.3 400 272 400c-105.9 0-192-86.13-192-192c0-15.91 2.16-31.29 5.824-46.08l-13.72-10.91C66.94 169.1 64 188.2 64 207.1c0 58.93 24.62 111.1 63.1 149.8L128 472c0 22.06 17.94 40 40 40h328c8.033 0 15.09-2.973 21.36-7.062l-13.29-10.57C501.5 495.3 498.9 496 496 496z"/></svg>

<svg xmlns="http://www.w3.org/2000/svg" viewBox="0 0 640 512"><!-- Font Awesome Pro 6.0.0-alpha2 by @fontawesome - https://fontawesome.com License - https://fontawesome.com/license (Commercial License) --><path d="M636.98 497.734L12.988 1.73C11.525 0.566 9.771 0 8.025 0C5.673 0 3.335 1.029 1.738 3.012C-1.012 6.48 -0.434 11.512 3.019 14.262L627.011 510.266C628.495 511.438 630.245 512 631.995 512C634.339 512 636.683 510.969 638.261 508.984C641.011 505.516 640.433 500.484 636.98 497.734ZM271.999 16C377.868 16 463.999 102.131 463.999 208C463.999 229.783 460.179 250.65 453.464 270.184L466.62 280.643C475.111 258.008 479.999 233.613 479.999 208C479.999 93.125 386.874 0 271.999 0C229.525 0 190.066 12.793 157.146 34.648L170.542 45.297C200.023 26.846 234.73 16 271.999 16ZM495.999 496H407.156C412.368 489.244 415.999 481.178 415.999 472V424.369L399.999 411.65V472C399.999 485.234 389.234 496 375.999 496H167.999C154.765 496 143.999 485.234 143.999 472V371.723C179.314 399.371 223.673 416 271.999 416C308.536 416 342.769 406.441 372.577 389.855L358.902 378.984C332.773 392.32 303.292 400 271.999 400C166.13 400 79.999 313.869 79.999 208C79.999 192.092 82.159 176.715 85.824 161.922L72.099 151.014C66.939 169.145 63.999 188.213 63.999 208C63.999 266.934 88.617 320.027 127.999 357.875V472C127.999 494.062 145.937 512 167.999 512H495.999C504.033 512 511.087 509.027 517.359 504.938L504.064 494.369C501.519 495.289 498.857 496 495.999 496Z"/></svg>
